X:6
T:Tom Billy's No.1
C:Traditional
N:Play 3 times
N:The Corofin Plain Set, Figure 4, Tune 1 of 2
Z:Gordon Turnbull, Edinburgh
Z:gturnbull@theflow.org.uk
Z:http://www.theflow.org.uk
R:Jig
L:1/8
M:6/8
K:Ador
ABA ABd | edB G2 B | dBB GBB | ABd efg |
ABA ABd | edB G2 B | dBB gBB | ABA A3 :||
eaa aga | bab age | ege GBd | ede ged |
eaa aga | bab age | ege dBG | ABA A3 :||
